packages/ckeditor5-icons/theme/icons/file-upload.svg

<svg viewBox="0 0 10 13" xmlns="http://www.w3.org/2000/svg">
<path d="M2.46773 7.40188C2.64348 7.22621 2.92835 7.22617 3.10406 7.40188L5.31012 9.60793C5.4857 9.78366 5.48574 10.0686 5.31012 10.2443C5.13443 10.42 4.84954 10.4199 4.67379 10.2443L3.2359 8.80637V12.22C3.2359 12.4685 3.03437 12.67 2.7859 12.67C2.53737 12.67 2.3359 12.4686 2.3359 12.22V8.80637L0.898008 10.2443C0.722292 10.42 0.437417 10.4199 0.26168 10.2443C0.0859471 10.0685 0.085954 9.78367 0.26168 9.60793L2.46773 7.40188Z"/>
<path fill-rule="evenodd" clip-rule="evenodd" d="M9.42984 4.23372V11.1999C9.42984 11.5147 9.17451 11.77 8.85973 11.77H4.62984V10.87H8.52984V4.87004H5.79996C5.48516 4.87004 5.22984 4.61473 5.22984 4.29993V1.57004H1.62984V6.94602L0.729844 7.84602V1.24016C0.729844 0.925359 0.985158 0.670044 1.29996 0.670044H5.86617L9.42984 4.23372ZM6.12984 3.97004H7.89352L6.12984 2.20637V3.97004Z"/>
</svg>

<svg xmlns="http://www.w3.org/2000/svg" viewBox="0 0 10 13"><path d="M2.468 7.402a.45.45 0 0 1 .636 0L5.31 9.608a.45.45 0 0 1-.636.636L3.236 8.806v3.414a.45.45 0 0 1-.9 0V8.806L.898 10.244a.45.45 0 0 1-.636-.636z"/><path fill-rule="evenodd" d="M9.43 4.234V11.2a.57.57 0 0 1-.57.57H4.63v-.9h3.9v-6H5.8a.57.57 0 0 1-.57-.57V1.57h-3.6v5.376l-.9.9V1.24A.57.57 0 0 1 1.3.67h4.566zm-3.3-.264h1.764L6.13 2.206z" clip-rule="evenodd"/></svg>
